svgs/regular/file-circle-question.svg

<svg xmlns="http://www.w3.org/2000/svg" viewBox="0 0 576 512"><!--! Font Awesome Pro 6.3.0 by @fontawesome - https://fontawesome.com License - https://fontawesome.com/license (Commercial License) Copyright 2023 Fonticons, Inc. --><path d="M64 464H284.5c12 18.4 27.4 34.5 45.3 47.3c-3.2 .5-6.4 .7-9.7 .7H64c-35.3 0-64-28.7-64-64V64C0 28.7 28.7 0 64 0H229.5c17 0 33.3 6.7 45.3 18.7l90.5 90.5c12 12 18.7 28.3 18.7 45.3v44.1c-17.2 4.9-33.4 12.3-48 21.8V160H256c-17.7 0-32-14.3-32-32V48H64c-8.8 0-16 7.2-16 16V448c0 8.8 7.2 16 16 16zM432 224a144 144 0 1 1 0 288 144 144 0 1 1 0-288zm0 240a24 24 0 1 0 0-48 24 24 0 1 0 0 48zM368 321.6V328c0 8.8 7.2 16 16 16s16-7.2 16-16v-6.4c0-5.3 4.3-9.6 9.6-9.6h40.5c7.7 0 13.9 6.2 13.9 13.9c0 5.2-2.9 9.9-7.4 12.3l-32 16.8c-5.3 2.8-8.6 8.2-8.6 14.2V384c0 8.8 7.2 16 16 16s16-7.2 16-16v-5.1l23.5-12.3c15.1-7.9 24.5-23.6 24.5-40.6c0-25.4-20.6-45.9-45.9-45.9H409.6c-23 0-41.6 18.6-41.6 41.6z"/></svg>

<svg xmlns="http://www.w3.org/2000/svg" viewBox="0 0 576 512"><!--! Font Awesome Pro 6.2.0 by @fontawesome - https://fontawesome.com License - https://fontawesome.com/license (Commercial License) Copyright 2022 Fonticons, Inc. --><path d="M63.1 464H284.5C296.5 482.4 311.9 498.5 329.7 511.3C326.6 511.7 323.3 512 320 512H64C28.65 512 0 483.3 0 448V64C0 28.65 28.65 0 64 0H229.5C246.5 0 262.7 6.743 274.7 18.75L365.3 109.3C377.3 121.3 384 137.5 384 154.5V198.6C366.8 203.5 350.6 210.9 336 220.5V160H256C238.3 160 224 145.7 224 128V48H64C55.16 48 48 55.16 48 64V448C48 456.8 55.16 464 64 464H63.1zM287.1 368C287.1 288.5 352.5 224 432 224C511.5 224 576 288.5 576 368C576 447.5 511.5 512 432 512C352.5 512 287.1 447.5 287.1 368zM432 464C445.3 464 456 453.3 456 440C456 426.7 445.3 416 432 416C418.7 416 408 426.7 408 440C408 453.3 418.7 464 432 464zM368 328C368 336.8 375.2 344 384 344C392.8 344 400 336.8 400 328V321.6C400 316.3 404.3 312 409.6 312H450.1C457.8 312 464 318.2 464 325.9C464 331.1 461.1 335.8 456.6 338.3L424.6 355.1C419.3 357.9 416 363.3 416 369.2V384C416 392.8 423.2 400 432 400C440.8 400 448 392.8 448 384V378.9L471.5 366.6C486.5 358.6 496 342.1 496 325.9C496 300.6 475.4 280 450.1 280H409.6C386.6 280 368 298.6 368 321.6V328z"/></svg>
